li/brand-cakephp.svg

<svg role="img" focusable="false" aria-hidden="true" xmlns="http://www.w3.org/2000/svg" viewBox="0 0 14 14" height="1em" width="1em">
  <path d="M 1,7.9375 1,9.81 c 0,1.0335 2.685,1.8715 6,1.8715 L 7,9.81 C 3.685,9.81 1,8.97 1,7.9385 L 1,7.9375 Z M 11.692,9.104 7,7.9375 7,9.81 11.692,10.9765 C 12.51,10.6565 13,10.2515 13,9.81 l 0,-1.8725 c 0,0.441 -0.49,0.846 -1.308,1.1665 z M 7,6.0665 7,7.9375 C 3.6865,7.9375 1,7.099 1,6.0655 L 1,4.19 C 1,3.158 3.685,2.3185 7,2.3185 c 3.3125,0 6,0.84 6,1.872 l 0,1.875 c 0,0.4415 -0.49,0.845 -1.308,1.167 L 7,6.065 7,6.0665 Z"/>
</svg>

<svg aria-hidden="true" xmlns="http://www.w3.org/2000/svg" viewBox="0 0 14 14" height="1em" width="1em">
  <path d="M1 7.938V9.81c0 1.034 2.685 1.871 6 1.871V9.81c-3.315 0-6-.84-6-1.872Zm10.692 1.166L7 7.938V9.81l4.692 1.166C12.51 10.656 13 10.252 13 9.81V7.937c0 .441-.49.846-1.308 1.167zM7 6.067v1.87c-3.313 0-6-.838-6-1.872V4.19c0-1.032 2.685-1.872 6-1.872 3.313 0 6 .84 6 1.872v1.875c0 .442-.49.845-1.308 1.167L7 6.066v.001Z"/>
</svg>
